public/icons/svgs/brands/vuejs.svg

<svg xmlns="http://www.w3.org/2000/svg" viewBox="0 0 448 512"><!--! Font Awesome Free 7.0.0 by @fontawesome - https://fontawesome.com License - https://fontawesome.com/license/free (Icons: CC BY 4.0, Fonts: SIL OFL 1.1, Code: MIT License) Copyright 2025 Fonticons, Inc. --><path fill="currentColor" d="M356.9 64.3l-76.9 0-56 88.6-48-88.6-176 0 224 383.7 224-383.7-91.1 0zM55.7 96.3l53.8 0 114.5 198.2 114.4-198.2 53.8 0-168.2 288.2-168.3-288.2z"/></svg>

<svg xmlns="http://www.w3.org/2000/svg" viewBox="0 0 448 512"><!--! Font Awesome Free 6.2.0 by @fontawesome - https://fontawesome.com License - https://fontawesome.com/license/free (Icons: CC BY 4.0, Fonts: SIL OFL 1.1, Code: MIT License) Copyright 2022 Fonticons, Inc. --><path d="M356.9 64.3H280l-56 88.6-48-88.6H0L224 448 448 64.3h-91.1zm-301.2 32h53.8L224 294.5 338.4 96.3h53.8L224 384.5 55.7 96.3z"/></svg>
